X:1
T:Les Pigeons Voyageurs
T:Les Pigeons Voyageurs Polka 
T:Philippe Stutz 
C:Philippe Stutz
%%score { 1 | 2 }
L:1/8
Q:1/4=120
M:2/4
K:E
V:1 treble nm="Piano" snm="Pno."
V:2 bass 
V:1
!p!"^Mouv de Polka." (b/^a/.=a) .a.g | (3(g/a/g/.f) z2 | (f/=f/.e) dc | (3(c/d/c/.B) z2 | %4
 (B/c/.B) .b.b | (B/c/.B) .b.b | (B/c/.B) .b.b | .!fermata!B .b .b.b |: (b/^a/.=a) .a.g | %9
 (3(g/a/g/.f) .f.f | (a/g/.f) .f.g | (3(f/g/f/.e) .e.e | (g/f/.e) .e.f | (3(e/f/e/.d) .d!>!e | %14
 (3(d/e/d/.c) .c!>!d | (3(c/d/c/.B) .B.d' || (b/^a/.=a) .a.g | (3(g/a/g/.f) .f.f | (a/g/.f) .f.g | %19
 (3(f/g/f/.e) .e.e' | (e'/^d'/.=d') .d'!>!e' | (3(=d'/e'/d'/.c') .c'!>!=c' | %22
 (3(=c'/=d'/c'/.b) !>!b.^d | (3(f/g/f/.e) !>!e2 ::!f! (f/g/f/d/ .B).b |{/b} .g.g{/g} .c.c | %26
{/c} .f.f{/f} .F.F |{/F} .d.d{/d} .B.B |!f! (f/g/f/d/ .B).b |{/b} .g.g{/g} .c.c | %30
{/c} .f.f{/f} .F.F |1 (B/d/f/d/ B2) :|2 .B!p!{/c'} .b{/c'} .b{/c'}.b || (b/^a/.=a) .a.g | %34
 (3(g/a/g/.f) z2 | (f/=f/.e) dc | (3(c/d/c/.B) z2 | (B/c/.B) .b.b | (B/c/.B) .b.b | (B/c/.B) .b.b | %40
 .B!p! .b .b.b || (b/^a/.=a) .a.g | (3(g/a/g/.f) .f.f | (a/g/.f) .f.g | (3(f/g/f/.e) .e.e | %45
 (g/f/.e) .e.f | (3(e/f/e/.d) .d!>!e | (3(d/e/d/.c) .c!>!d | (3(c/d/c/.B) .B.d' || %49
 (b/^a/.=a) .a.g | (3(g/a/g/.f) .f.f | (a/g/.f) .f.g | (3(f/g/f/.e) .e.e' | %53
 (e'/^d'/.=d') .d'!>!e' | (3(=d'/e'/d'/.c') .c'!>!=c' | (3(=c'/=d'/c'/.b) !>!b.^d | %56
 (3(f/g/f/.e) !>!e2 |!ff! (=d'/c'/b/a/ g/=g/f/=f/ | e)!>(!.e .d.=d!>)! |: %59
[K:A]"^TRIO"!mf! .c.e (b>a) |!>(!{/a} d4!>)! | .B.d (f>=f) |!>(!{/=f} e4!>)! | %63
!<(! (AB/4A/4G/4A/4) (B>c)!<)! | .e.d{/d} F=F | E!<(!(^D/E/ F/G/A/B/!<)! |!>(! (=c2) ^c>)!>)!A | %67
 .c.e (b>a) |!>(!{/a} d4!>)! | .B.d (f>=f) |!>(!{/=f} e4!>)! | .e.F{/A} .=G.F | (Fe) (d>=F) | %73
 (Ec)!>(! (c>B!>)! | A2) [CEA] z ::[K:D]!f! (g/b/A) (e/g/A) | (f/a/A) (d/f/A) | (e/g/A) (c/e/A) | %78
 [Fd][FA]{/c} [GB][FA] | (g/b/A) (e/g/A) | (f/a/A) (d/f/A) | (e/g/A) (c/e/A) | .[Fd].A .[Fd]2 :| %83
[K:A]!mf! .c.e (b>a) |!>(!{/a} d4!>)! | .B.d (f>=f) |!>(!{/=f} e4!>)! | %87
!<(! (AB/4A/4G/4A/4) (B>c)!<)! | .e.d{/d} F=F | E!<(!(^D/E/ F/G/A/B/!<)! |!>(! (=c2) ^c>)!>)!A | %91
 .c.e (b>a) |!>(!{/a} d4!>)! | .B.d (f>=f) |!>(!{/=f} e4!>)! | .e.F{/A} .=G.F | (Fe) (d>=F) | %97
 (Ec)!>(! (c>B!>)! | A2) [CEA] z ||[K:E] (b/^a/.=a) .a.g | (3(g/a/g/.f) z2 | (f/=f/.e) dc | %102
 (3(c/d/c/.B) z2 | (B/c/.B) .b.b | (B/c/.B) .b.b | (B/c/.B) .b.b | .B!p! .b .b.b | %107
 (b/^a/.=a) .a.g | (3(g/a/g/.f) .f.f | (a/g/.f) .f.g | (3(f/g/f/.e) .e.e | (g/f/.e) .e.f | %112
 (3(e/f/e/.d) .d!>!e | (3(d/e/d/.c) .c!>!d | (3(c/d/c/.B) .B.d' | (b/^a/.=a) .a.g | %116
 (3(g/a/g/.f) .f.f | (a/g/.f) .f.g | (3(f/g/f/.e) .e.e' | (e'/^d'/.=d') .d'!>!e' | %120
 (3(=d'/e'/d'/.c') .c'!>!=c' | (3(=c'/=d'/c'/.b) !>!b.^d | .e!ff!(b/c'/ .b)(b/c'/ | %123
 .b)(b/c'/ .b)(b/c'/ | .b)(b/c'/ .b)(b/c'/ | .b)(b/c'/ .b)(b/c'/ | .e') z/ [GBe]/ [GBe][GBe] | %127
 [GBe]2 z2 | [gg']2 z3/2 [G,B,E]/ | !fermata![G,B,E]4 |] %130
V:2
 z4 | z2[K:treble] [DAB][DAB] | z4 | z2[K:bass] [D,A,B,][D,A,B,] | [A,B,]4 | ([F,B,]4 | ([D,B,]4) | %7
 [B,,B,]) z z2 |: z4 | [B,,B,][A,B,D] [A,B,D][A,B,D] | [B,,B,][A,B,D] [A,B,D][A,B,D] | %11
 E,[G,B,E] [G,B,E][G,B,E] | E,[G,B,E] [G,B,E][G,B,E] | B,,[F,A,B,] [F,A,B,][F,A,B,] | %14
 B,,[F,A,B,] [F,A,B,][F,A,B,] | E,[G,B,] [G,B,][G,B,] || E,[G,B,] [G,B,][G,B,] | %17
 [B,,B,][A,B,D] [A,B,D][A,B,D] | [B,,B,][A,B,D] [A,B,D][A,B,D] | E,[G,B,E] [G,B,E][G,B,E] | %20
 E,[G,B,E] [G,B,E][G,B,E] | A,[CE] [CE]^A, | B,[EG] B,[FA] | [E,E][EG] [EG]2 :: %24
 B,,[D,F,B,] [D,F,B,]2 | [E,,E,][G,CE] [G,CE]2 | [F,,F,][F,^A,E] [F,A,E]2 | %27
 [B,,B,][F,B,D] [F,B,D]2 | [B,,B,][F,B,D] [F,B,D]2 | [E,,E,][G,CE] [G,CE]2 | %30
 [F,,F,][F,^A,E] [F,A,E]2 |1 [B,,B,][F,B,D] [F,B,D]2 :|2 [B,D] z z2 || z4 | %34
 z2[K:treble] [DAB][DAB] | z4 | z2[K:bass] [D,A,B,][D,A,B,] | ([A,B,]4 | ([F,B,]4) | ([D,B,]4) | %40
 [B,,B,]) z z2 || z4 | [B,,B,][A,B,D] [A,B,D][A,B,D] | [B,,B,][A,B,D] [A,B,D][A,B,D] | %44
 E,[G,B,E] [G,B,E][G,B,E] | E,[G,B,E] [G,B,E][G,B,E] | B,,[F,A,B,] [F,A,B,][F,A,B,] | %47
 B,,[F,A,B,] [F,A,B,][F,A,B,] | E,[G,B,] [G,B,][G,B,] || E,[G,B,] [G,B,][G,B,] | %50
 [B,,B,][A,B,D] [A,B,D][A,B,D] | [B,,B,][A,B,D] [A,B,D][A,B,D] | E,[G,B,E] [G,B,E][G,B,E] | %53
 E,[G,B,E] [G,B,E][G,B,E] | A,[CE] [CE]^A, | B,[EG] B,[FA] | [E,E][EG] [EG]2 | %57
 !^![E,G,B,=D]!^![E,G,B,D] !^![E,G,B,D]!^![E,G,B,D] | !^![E,G,B,=D] z z2 |: %59
[K:A] A,,[E,A,C] [E,A,C]2 | .E,,(E,/G,/ B,/G,/.E,) | E,,[E,G,D] [E,G,D]2 | .A,,(E,/A,/ C/A,/.E,) | %63
 A,,[E,A,C] [E,A,C]2 | D,[F,B,] [F,B,]2 | E,[G,B,] [G,B,]2 | A,,[E,A,C] [E,A,C]2 | %67
 A,,[E,A,C] [E,A,C]2 | .E,,(E,/G,/ B,/G,/.E,) | E,,[E,G,D] [E,G,D]2 | .A,,(E,/A,/ C/A,/.E,) | %71
 [F,,F,][F,CE] [F,CE][F,CE] | B,,[F,B,D] [F,B,D]2 | E,[A,C] [E,G,D]2 | [A,C]2 [A,,A,] z :: %75
[K:D] C,[E,A,] A,,[E,A,] | D,[F,A,] A,,[F,A,] | E,[G,A,] A,,[G,A,] | D,[F,A,] A,,[F,A,] | %79
 C,[E,A,] A,,[E,A,] | D,[F,A,] A,,[F,A,] | E,[G,A,] A,,[G,A,] | [D,F,A,]2 [D,,D,]2 :| %83
[K:A] A,,[E,A,C] [E,A,C]2 | .E,,(E,/G,/ B,/G,/.E,) | E,,[E,G,D] [E,G,D]2 | .A,,(E,/A,/ C/A,/.E,) | %87
 A,,[E,A,C] [E,A,C]2 | D,[F,B,] [F,B,]2 | E,[G,B,] [G,B,]2 | A,,[E,A,C] [E,A,C]2 | %91
 A,,[E,A,C] [E,A,C]2 | .E,,(E,/G,/ B,/G,/.E,) | E,,[E,G,D] [E,G,D]2 | .A,,(E,/A,/ C/A,/.E,) | %95
 [F,,F,][F,CE] [F,CE][F,CE] | B,,[F,B,D] [F,B,D]2 | E,[A,C] [E,G,D]2 | [A,C]2 [A,,A,] z || %99
[K:E] z4 | z2[K:treble] [DAB][DAB] | z4 | z2[K:bass] [D,A,B,][D,A,B,] | [A,B,]4 | ([F,B,]4 | %105
 ([D,B,]4) | [B,,B,]) z z2 | z4 | [B,,B,][A,B,D] [A,B,D][A,B,D] | [B,,B,][A,B,D] [A,B,D][A,B,D] | %110
 E,[G,B,E] [G,B,E][G,B,E] | E,[G,B,E] [G,B,E][G,B,E] | B,,[F,A,B,] [F,A,B,][F,A,B,] | %113
 B,,[F,A,B,] [F,A,B,][F,A,B,] | E,[G,B,] [G,B,][G,B,] | E,[G,B,] [G,B,][G,B,] | %116
 [B,,B,][A,B,D] [A,B,D][A,B,D] | [B,,B,][A,B,D] [A,B,D][A,B,D] | E,[G,B,E] [G,B,E][G,B,E] | %119
 E,[G,B,E] [G,B,E][G,B,E] | A,[CE] [CE]^A, | B,[EG] B,[FA] | [EG]2 [B,,D,F,B,][B,,D,F,B,] | %123
 [E,G,B,][E,G,B,] [B,,D,F,B,][B,,D,F,B,] | [E,G,B,][E,G,B,] [B,,D,F,B,][B,,D,F,B,] | %125
 [E,G,B,][E,G,B,] [B,,D,F,B,][B,,D,F,B,] | [E,G,B,]2 [E,G,B,][E,G,B,] | [E,G,B,]2 z2 | %128
 [EGB]2[K:bass] z3/2 [E,,E,]/ | [E,,E,]4 |] %130

